X:320
T: Stepney's Rant
N: O'Farrell's Pocket Companion v.4 (Sky ed. p.141)
N: "Irish"
M: 6/8
R: jig
L: 1/8
Q: 320
K: D
F/E/| DFA def| ece dAF| GBG FAF| BGE E2F|
DFA def| ece dAF| GBG FAF| DED D2 :|
A| FGF FED| GBG GFE| FGF FED| BGE E2G|
FGF FED| GBG GFE| GBG FAF| DFD D2 :|
